build/svg/cmd/lc_definedbname.svg

<svg xmlns="http://www.w3.org/2000/svg" viewBox="0 0 24 24"><path fill="#fff" fill-rule="evenodd" d="M4 8h3v11H4z"/><path fill="#a6d74f" fill-rule="evenodd" d="M4 4h15v3H4z"/><path d="M3 5v13c0 2 1 2 3 2h2V8h12V5c0-2-1-2-3-2H6C4 3 3 3 3 5zm1 0c0-1 1-1 2-1h1v3H4zm4-1h3v3H8zm4 0h3v3h-3zm4 0h1c1 0 2 0 2 1v2h-3zM4 8h3v3H4zm0 4h3v3H4zm0 4h3v3H6c-1 0-2 0-2-1z" fill="#6d6d6d" fill-rule="evenodd"/><path d="M12 11c-.01-.303.738-.412 1.876-.095 1.137.315 1.443.847 2.73 1.214 1.193.34 3.4-.002 3.394.304l.012 5.937c.01.408-2.068.387-3.358.078-1.287-.308-1.53-.907-2.743-1.22-1.214-.312-1.938.341-1.911-.218z" fill="#fa9381" fill-rule="evenodd"/><rect width="2" height="12" x="10" y="10" ry="1" fill="#6d6d6d" fill-rule="evenodd"/></svg>

<?xml version="1.0" encoding="UTF-8" standalone="no"?>
<svg
   xmlns:dc="http://purl.org/dc/elements/1.1/"
   xmlns:cc="http://creativecommons.org/ns#"
   xmlns:rdf="http://www.w3.org/1999/02/22-rdf-syntax-ns#"
   xmlns:svg="http://www.w3.org/2000/svg"
   xmlns="http://www.w3.org/2000/svg"
   xmlns:sodipodi="http://sodipodi.sourceforge.net/DTD/sodipodi-0.dtd"
   xmlns:inkscape="http://www.inkscape.org/namespaces/inkscape"
   viewBox="0 0 24 24"
   version="1.1"
   id="svg4"
   sodipodi:docname="lc_definedbname.svg"
   inkscape:export-filename="/home/jupiter007/Libreoffice yaru theme fullcolor/build/cmd/lc_definedbname.png"
   inkscape:export-xdpi="96"
   inkscape:export-ydpi="96"
   inkscape:version="0.92.5 (2060ec1f9f, 2020-04-08)">
  <metadata
     id="metadata10">
    <rdf:RDF>
      <cc:Work
         rdf:about="">
        <dc:format>image/svg+xml</dc:format>
        <dc:type
           rdf:resource="http://purl.org/dc/dcmitype/StillImage" />
      </cc:Work>
    </rdf:RDF>
  </metadata>
  <defs
     id="defs8">
    <linearGradient
       id="c"
       gradientTransform="matrix(0.72556,0,0,0.7708,10.123,10.358)"
       gradientUnits="userSpaceOnUse"
       x1="3.1389999"
       x2="2"
       y1="8.1990004"
       y2="8">
      <stop
         offset="0"
         stop-color="#e4e4e4"
         id="stop14" />
      <stop
         offset="1"
         stop-color="#fff"
         id="stop16" />
    </linearGradient>
    <linearGradient
       id="a"
       gradientTransform="matrix(0.21788,0.05143,0.00147,0.2555,11.196,8.378)"
       gradientUnits="userSpaceOnUse"
       spreadMethod="reflect"
       x1="0.36500001"
       x2="28.059999"
       y1="19.599001"
       y2="19.599001">
      <stop
         offset="0"
         stop-color="#ffcd7d"
         id="stop2" />
      <stop
         offset=".262"
         stop-color="#fc8f36"
         id="stop4" />
      <stop
         offset="1"
         stop-color="#e23a0e"
         id="stop6" />
    </linearGradient>
    <linearGradient
       id="b"
       gradientTransform="matrix(0.16427,0.03876,0.0011,0.19134,12.383,9.072)"
       gradientUnits="userSpaceOnUse"
       spreadMethod="reflect"
       x1="30"
       x2="-11"
       y1="30"
       y2="30">
      <stop
         offset="0"
         stop-color="#ba3d12"
         id="stop9" />
      <stop
         offset="1"
         stop-color="#db6737"
         id="stop11" />
    </linearGradient>
  </defs>
  <sodipodi:namedview
     pagecolor="#ffffff"
     bordercolor="#666666"
     borderopacity="1"
     objecttolerance="10"
     gridtolerance="10"
     guidetolerance="10"
     inkscape:pageopacity="0"
     inkscape:pageshadow="2"
     inkscape:window-width="1920"
     inkscape:window-height="1011"
     id="namedview6"
     showgrid="true"
     inkscape:zoom="27.812867"
     inkscape:cx="1.5034665"
     inkscape:cy="12.880692"
     inkscape:window-x="0"
     inkscape:window-y="32"
     inkscape:window-maximized="1"
     inkscape:current-layer="svg4">
    <inkscape:grid
       type="xygrid"
       id="grid827" />
  </sodipodi:namedview>
  <rect
     style="opacity:1;fill:#ffffff;fill-opacity:1;fill-rule:evenodd;stroke:none;stroke-width:2;stroke-linecap:butt;stroke-linejoin:round;stroke-miterlimit:4;stroke-dasharray:none;stroke-opacity:1"
     id="rect850"
     width="3"
     height="11"
     x="4.0000005"
     y="8.000001" />
  <rect
     style="opacity:1;fill:#a6d74f;fill-opacity:1;fill-rule:evenodd;stroke:none;stroke-width:2;stroke-linecap:butt;stroke-linejoin:round;stroke-miterlimit:4;stroke-dasharray:none;stroke-opacity:1"
     id="rect852"
     width="15"
     height="3"
     x="4.0000005"
     y="4" />
  <path
     style="opacity:1;fill:#6d6d6d;fill-opacity:1;fill-rule:evenodd;stroke:none;stroke-width:2;stroke-linecap:butt;stroke-linejoin:round;stroke-miterlimit:4;stroke-dasharray:none;stroke-opacity:1"
     d="m 3,5 v 3 10 c 0,2 1,2 3,2 H 8 V 8 H 20 V 5 C 20,3 19,3 17,3 H 8 6 C 4,3 3,3 3,5 Z M 4,5 C 4,4 5,4 6,4 H 7 V 7 H 4 Z M 8,4 h 3 V 7 H 8 Z m 4,0 h 3 v 3 h -3 z m 4,0 h 1 c 1,0 2,0 2,1 V 7 H 16 Z M 3.9999999,8 H 7 v 3 H 4 Z m 0,4 H 7 v 3 H 4 Z m 0,4 H 7 v 3 H 6 C 5,19 4,19 4,18 Z"
     id="rect824"
     inkscape:connector-curvature="0"
     sodipodi:nodetypes="cccccccccccccccccccccccccccccccccccccccccccccccccc" />
  <path
     id="path60"
     d="m 12,11 c -0.01,-0.303 0.738,-0.412 1.876,-0.095 1.137,0.315 1.443,0.847 2.73,1.214 1.193,0.34 3.4,-0.002 3.394,0.304 l 0.012,5.937 c 0.01,0.408 -2.068,0.387 -3.358,0.078 -1.287,-0.308 -1.53,-0.907 -2.743,-1.22 C 12.697,16.906 11.973,17.559 12,17 Z"
     inkscape:connector-curvature="0"
     style="fill:#fa9381;fill-opacity:1;fill-rule:evenodd;stroke:none;stroke-linejoin:round"
     sodipodi:nodetypes="ccccccccc" />
  <rect
     style="opacity:1;fill:#6d6d6d;fill-opacity:1;fill-rule:evenodd;stroke:none;stroke-width:2;stroke-linecap:butt;stroke-linejoin:round;stroke-miterlimit:4;stroke-dasharray:none;stroke-opacity:1"
     id="rect861"
     width="2"
     height="12"
     x="10"
     y="10"
     ry="1" />
</svg>
